fileicons/icons/assembly.svg

<?xml version="1.0" encoding="UTF-8" standalone="no"?>
<svg
   xmlns:dc="http://purl.org/dc/elements/1.1/"
   xmlns:cc="http://creativecommons.org/ns#"
   xmlns:rdf="http://www.w3.org/1999/02/22-rdf-syntax-ns#"
   xmlns:svg="http://www.w3.org/2000/svg"
   xmlns="http://www.w3.org/2000/svg"
   xmlns:sodipodi="http://sodipodi.sourceforge.net/DTD/sodipodi-0.dtd"
   xmlns:inkscape="http://www.inkscape.org/namespaces/inkscape"
   version="1.1"
   width="24"
   height="24"
   viewBox="0 0 24 24"
   id="svg2"
   inkscape:version="0.91 r13725"
   sodipodi:docname="assembly.svg">
  <metadata
     id="metadata10">
    <rdf:RDF>
      <cc:Work
         rdf:about="">
        <dc:format>image/svg+xml</dc:format>
        <dc:type
           rdf:resource="http://purl.org/dc/dcmitype/StillImage" />
      </cc:Work>
    </rdf:RDF>
  </metadata>
  <defs
     id="defs8" />
  <sodipodi:namedview
     pagecolor="#ffffff"
     bordercolor="#666666"
     borderopacity="1"
     objecttolerance="10"
     gridtolerance="10"
     guidetolerance="10"
     inkscape:pageopacity="0"
     inkscape:pageshadow="2"
     inkscape:window-width="1366"
     inkscape:window-height="705"
     id="namedview6"
     showgrid="false"
     inkscape:zoom="16"
     inkscape:cx="10.878774"
     inkscape:cy="9.977663"
     inkscape:window-x="-8"
     inkscape:window-y="-8"
     inkscape:window-maximized="1"
     inkscape:current-layer="svg2" />
  <path
     style="fill:#795548;fill-opacity:1"
     d="M 6 2 C 4.89 2 4 2.89 4 4 L 4 20 A 2 2 0 0 0 6 22 L 18 22 A 2 2 0 0 0 20 20 L 20 8 L 14 2 L 6 2 z M 13 3.5 L 18.5 9 L 13 9 L 13 3.5 z M 8.9960938 10.175781 C 10.709868 10.175781 11.566406 10.565102 11.566406 11.345703 L 11.566406 13.308594 C 11.566406 14.136818 10.712859 14.550781 9.0058594 14.550781 C 7.9152761 14.550781 7.1880513 14.470215 6.8222656 14.306641 C 6.4632537 14.140996 6.2832031 13.807599 6.2832031 13.308594 L 6.2832031 11.496094 C 6.2832031 10.616106 7.1874867 10.175781 8.9960938 10.175781 z M 15.478516 10.244141 L 16.462891 10.244141 L 16.462891 13.349609 L 17.246094 13.349609 L 17.246094 14.482422 L 13.791016 14.482422 L 13.791016 13.349609 L 14.523438 13.349609 L 14.523438 11.527344 L 13.791016 11.527344 L 13.791016 10.570312 C 14.637742 10.570312 15.200789 10.461549 15.478516 10.244141 z M 8.9355469 11.298828 C 8.4613802 11.298828 8.2246094 11.469022 8.2246094 11.808594 L 8.2246094 12.871094 L 8.2246094 13.007812 L 8.2558594 13.15625 C 8.3168237 13.286695 8.5317374 13.353516 8.9042969 13.353516 C 9.3852373 13.353516 9.6269531 13.181604 9.6269531 12.837891 L 9.6269531 11.808594 L 9.6171875 11.634766 C 9.6171875 11.411145 9.3893921 11.298828 8.9355469 11.298828 z M 15.457031 15.900391 C 17.170805 15.900391 18.027344 16.289711 18.027344 17.070312 L 18.027344 19.033203 C 18.027344 19.861427 17.173797 20.275391 15.466797 20.275391 C 14.376214 20.275391 13.648989 20.194824 13.283203 20.03125 C 12.924191 19.865605 12.744141 19.532208 12.744141 19.033203 L 12.744141 17.220703 C 12.744141 16.340715 13.648424 15.900391 15.457031 15.900391 z M 9.0175781 15.96875 L 10.001953 15.96875 L 10.001953 19.074219 L 10.785156 19.074219 L 10.785156 20.207031 L 7.3300781 20.207031 L 7.3300781 19.074219 L 8.0625 19.074219 L 8.0625 17.251953 L 7.3300781 17.251953 L 7.3300781 16.294922 C 8.1768043 16.294922 8.7398519 16.186159 9.0175781 15.96875 z M 15.396484 17.025391 C 14.922318 17.025391 14.685547 17.193631 14.685547 17.533203 L 14.685547 18.595703 L 14.685547 18.732422 L 14.716797 18.880859 C 14.777761 19.011305 14.992675 19.078125 15.365234 19.078125 C 15.846175 19.078125 16.087891 18.906213 16.087891 18.5625 L 16.087891 17.533203 L 16.078125 17.359375 C 16.078125 17.135754 15.85033 17.025391 15.396484 17.025391 z "
     id="path4" />
</svg>

<svg xmlns="http://www.w3.org/2000/svg" width="24" height="24" viewBox="0 0 24 24"><path d="M6 2c-1.11 0-2 .89-2 2v16a2 2 0 0 0 2 2h12a2 2 0 0 0 2-2V8l-6-6H6zm7 1.5L18.5 9H13V3.5zm-4.004 6.676c1.714 0 2.57.39 2.57 1.17v1.963c0 .828-.853 1.242-2.56 1.242-1.09 0-1.818-.08-2.184-.244-.359-.166-.539-.5-.539-.998v-1.813c0-.88.904-1.32 2.713-1.32zm6.483.068h.984v3.106h.783v1.132h-3.455V13.35h.732v-1.823h-.732v-.957c.847 0 1.41-.108 1.688-.326zM8.936 11.3c-.475 0-.711.17-.711.51v1.199l.03.148c.062.13.277.198.65.198.48 0 .722-.172.722-.516v-1.03l-.01-.173c0-.224-.228-.336-.681-.336zm6.521 4.601c1.714 0 2.57.39 2.57 1.17v1.963c0 .828-.853 1.242-2.56 1.242-1.09 0-1.818-.08-2.184-.244-.359-.165-.539-.499-.539-.998v-1.812c0-.88.904-1.32 2.713-1.32zm-6.44.069h.985v3.105h.783v1.133H7.33v-1.133h.732v-1.822H7.33v-.957c.847 0 1.41-.109 1.688-.326zm6.38 1.056c-.475 0-.711.169-.711.508V18.732l.03.149c.062.13.277.197.65.197.48 0 .722-.172.722-.515v-1.03l-.01-.174c0-.223-.228-.334-.682-.334z" fill="#795548"/></svg>
